X: 13224
T: Fisher's
R: hornpipe
M: 4/4
K: Fmajor
|:ce|"F"fcAc "Bb"BdcB|"F"AFAF "Bb"BdcB|"F"AFAF "Gm"BGBG|"G"AFAF "C"G2 ce|
"F"fcAc "Bb"BdcB|"F"AFAF "Bb"BdcB|"F"ABcd "C"efge|"F"f2 fe f2:|
|:ef|"C"gece gebg|"F"afcf afba|"C"gece geba|"G"gfed "C"c2 fe|
"Bb"dBFB dBfd|"F"cAFA cAfc|"Bb"dfed "C"cBAG|"F"F2 FE F2:|

